m/partners/pnr13.svg

<svg width="31" height="31" viewBox="0 0 31 31" fill="none" xmlns="http://www.w3.org/2000/svg">
<path d="M14.4446 14.5569H0V0.00012207H14.4446V14.5569Z" fill="#A5CCE2"/>
<path d="M30.3935 14.5567H15.9492V0H30.3935V14.5567Z" fill="#6990A6"/>
<path d="M14.4441 30.6347H0V16.0782H14.4441V30.6347Z" fill="#194056"/>
<path d="M30.3935 30.6347H15.9492V16.0782H30.3935V30.6347Z" fill="#2B354E"/>
</svg>

<svg xmlns="http://www.w3.org/2000/svg" fill="none" viewBox="0 0 31 31"><path fill="#A5CCE2" d="M14.445 14.557H0V0h14.445v14.557Z"/><path fill="#6990A6" d="M30.393 14.557H15.95V0h14.444v14.557Z"/><path fill="#194056" d="M14.444 30.635H0V16.078h14.444v14.557Z"/><path fill="#2B354E" d="M30.393 30.635H15.95V16.078h14.444v14.557Z"/></svg>
